X:6303
T:Stoneys Walzer (Stephan Steiner)
O:england
C:Stoney, 29. 12. 1999
N:Copyright by Stephan Steiner (2000), stoney@folkladen.com
M:3/4
L:1/4
K:G
"Em"BEG|"D"ADF|"Hm (D)"A G/A/G/F/|"C"EDC|\
"G"B,CD|"Em"EFG|"Am"A,B,C|"D"DGA|
"Em"BEG|"D"ADF|"Hm (D)"A G/A/G/F/|"C"EDC|\
"Em"B,CD|"Am"EF(G|"D"G)FD|1 "C"E3:|2 "Em"E3||
|: "F"=fAd|"C"eGc|"Am"e d/"D"e/d/c/|\
"G"dGB|"Em"d c/d/c/B/|"C"c c/B/ "F"c|B/A/ \
"Em"B A/G/|"D"A3 |
"Em"BEG|"Dm"AD "f"=F|A "d"G/A/G/=F/|\
"C"GCD|"Em"B,CD|"Am"EF(G|"D"G)FD|"G"G3:|


